X: 1
T: Longest Thread, The
M: 6/8
L: 1/8
R: jig
K: Amaj
|:Acc ecc|acc ecc|Add fdd|add fec|
Acc ecc|acc ecc|dcd fdf|ecA A3:|
|:E2c cBA|F2d dcd|G2B BcB|AGF ECD|
E2c cBA|F2d dcd|fec ecB|1cAF ECD:|2cAF E3||
